Adwaita++-Light/panel/24/pushbullet-indicator-paused.svg

<svg height="24" width="24" xmlns="http://www.w3.org/2000/svg">
  <path d="m4 6v12h2v-12zm4 0v12l4.251953-.033203c2.9313-.03263 3.207966-.071951 4.447266-.675781 2.702-1.3165 3.979706-4.50465 2.941406-7.3437504-.686-1.8753-2.247328-3.2626781-4.236328-3.7675781-.625-.1586-1.021219-.1796875-3.449219-.1796875zm3 3h2v6h-2zm3 0h2v6h-2z" fill="#444"/>
</svg>

<svg xmlns="http://www.w3.org/2000/svg" width="24" height="24" version="1.1">
 <defs>
  <style id="current-color-scheme" type="text/css">
   .ColorScheme-Text { color:#444444; } .ColorScheme-Highlight { color:#4285f4; }
  </style>
 </defs>
 <path style="fill:currentColor" class="ColorScheme-Text" d="M 4 6 L 4 18 L 6 18 L 6 6 L 4 6 z M 8 6 L 8 18 L 12.251953 17.966797 C 15.183253 17.934167 15.459919 17.894846 16.699219 17.291016 C 19.401219 15.974516 20.678925 12.786366 19.640625 9.9472656 C 18.954625 8.0719656 17.393297 6.6845875 15.404297 6.1796875 C 14.779297 6.0210875 14.383078 6 11.955078 6 L 8 6 z M 11 9 L 13 9 L 13 15 L 11 15 L 11 9 z M 14 9 L 16 9 L 16 15 L 14 15 L 14 9 z"/>
</svg>
